static/assets/template/assets/img/icons/essential/detailed/Mobile_Store.svg

<svg height="149" viewBox="0 0 109 149" width="109" xmlns="http://www.w3.org/2000/svg"><g fill="none" fill-rule="evenodd" transform="translate(1 2)"><g stroke-linecap="round" stroke-linejoin="round" stroke-width="3" transform="translate(0 144)"><path d="m1.7.6h-1.1"/><path d="m95 .6h-87.1"/><path d="m105.9.6h-5.9"/></g><path d="m80.6 143.6h-56.8c-5.7 0-10.3-4.6-10.3-10.3v-122.8c0-5.7 4.6-10.3 10.3-10.3h56.8c5.7 0 10.3 4.6 10.3 10.3v122.8c0 5.7-4.6 10.3-10.3 10.3z" fill-rule="nonzero"/><path d="m90.9 10.5v122.8c0 5.7-4.6 10.3-10.3 10.3h-56.8c-5.7 0-10.3-4.6-10.3-10.3v-122.8c0-5.7 4.6-10.3 10.3-10.3h56.8c5.7-.1 10.3 4.6 10.3 10.3z" fill-rule="nonzero"/><path d="m13.4 11.6h77.5v115.6h-77.5z" fill-rule="nonzero"/><path d="m81.7 42.8s0 .1 0 0c0-.1 0 0 0 0 0 5.5-4.4 10.6-9.9 10.6-5.4 0-9.8-4.5-9.8-10 0 5.5-4.4 10-9.8 10-5 0-9-4.2-9.6-9.2-.1-.4-.1-.9-.1-1.4v.1-.1.2s0 0 0-.1c0 5.5-4.5 10.6-10 10.6-5.4 0-9.9-4.5-9.9-10v.6c-.3 5-4.2 9-9.2 9.4v-23.5h77.5v23.5" fill="#9ecbff" fill-rule="nonzero"/><g stroke-linecap="round" stroke-linejoin="round" stroke-width="3"><path d="m13.4 54.4v-43.9c0-5.7 4.6-10.3 10.3-10.3h56.8c5.7 0 10.3 4.6 10.3 10.3v122.8c0 5.7-4.6 10.3-10.3 10.3h-56.8c-5.7 0-10.3-4.6-10.3-10.3v-62.7"/><path d="m13.4 45.8v-.4"/><circle cx="52.8" cy="135.2" r="3.5"/><path d="m82.5 12.1h7.7"/><path d="m20.7 12.1h55.7"/><path d="m72.7 126.7h-58.5"/><path d="m90.2 126.7h-11.1"/><path d="m49.3 6.1h9"/><path d="m43.4 6.1h.6"/></g><g transform="translate(3 11)"><path d="m98.4 25.9v.9c0 5.5-4.4 10-9.8 10s-9.8-5-9.8-10.6v-.1.2s0 0 0-.1c0 5.5-4.4 10.6-9.9 10.6s-9.8-4.5-9.8-10c0 5.5-4.4 10-9.8 10-5 0-9-4.2-9.6-9.2-.1-.4-.1-.9-.1-1.4v.1-.2.2s0 0 0-.1c0 5.5-4.5 10.6-10 10.6s-9.9-4.5-9.9-10v.6c-.3 5.2-4.6 9.4-9.8 9.4-5.4 0-9.8-4.5-9.8-10 0-.3 0-.6 0-.9v-12.5l10.9-12.8h76.5l10.9 12.8z" fill-rule="nonzero"/><path d="m39.4 13.4.1 14.2c-.1-.4-.1-.9-.1-1.4 0 5.5-4.5 10.6-10 10.6s-9.9-4.5-9.9-10v.6l.1-13.6 6.2-11.2 1.3-2h16.2z" fill-rule="nonzero"/><path d="m59.3 13.4-.1 14.2c.1-.4.1-.9.1-1.4 0 5.5 4.5 10.6 10 10.6s9.9-4.5 9.9-10v.6l-.1-13.6-6.2-11.2-1.3-2h-16.2z" fill-rule="nonzero"/><g stroke-linecap="round" stroke-linejoin="round" stroke-width="3"><path d="m98.4 25.9v.9c0 5.5-4.4 10-9.8 10s-9.8-5-9.8-10.6v-.1.2s0 0 0-.1c0 5.5-4.4 10.6-9.9 10.6s-9.8-4.5-9.8-10c0 5.5-4.4 10-9.8 10-5 0-9-4.2-9.6-9.2-.1-.4-.1-.9-.1-1.4v.1-.2.2s0 0 0-.1c0 5.5-4.5 10.6-10 10.6s-9.9-4.5-9.9-10v.6c-.3 5.2-4.6 9.4-9.8 9.4-5.4 0-9.8-4.5-9.8-10 0-.3 0-.6 0-.9v-12.5l10.9-12.8h76.5l10.9 12.8z"/><path d="m19.6 25.8v-12.4l7.7-12.8"/><path d="m39.4 26.2v-12.8l4.3-12.8" fill-rule="nonzero"/><path d="m78.7 26.2v-12.8l-6.7-12.8"/><path d="m58.9 25.8v-12.4l-3.3-12.8" fill-rule="nonzero"/><path d="m64.5 13.4h33.9" fill-rule="nonzero"/><path d="m12.9 13.4h46" fill-rule="nonzero"/><path d="m8.7 13.4h.6" fill-rule="nonzero"/><path d="m0 13.4h3.1" fill-rule="nonzero"/></g></g></g></svg>

<?xml version="1.0" encoding="UTF-8"?>
<svg width="109px" height="149px" viewBox="0 0 109 149" version="1.1" xmlns="http://www.w3.org/2000/svg" xmlns:xlink="http://www.w3.org/1999/xlink">
    <!-- Generator: Sketch 51.2 (57519) - http://www.bohemiancoding.com/sketch -->
    <title>Mobile_Store</title>
    <desc>Created with Sketch.</desc>
    <defs></defs>
    <g id="Page-1" stroke="none" stroke-width="1" fill="none" fill-rule="evenodd">
        <g id="Mobile_Store" transform="translate(1.000000, 2.000000)">
            <g id="Group" transform="translate(0.000000, 144.000000)" class="stroke-primary-300" stroke-linecap="round" stroke-linejoin="round" stroke-width="3">
                <path d="M1.7,0.6 L0.6,0.6" id="Shape"></path>
                <path d="M95,0.6 L7.9,0.6" id="Shape"></path>
                <path d="M105.9,0.6 L100,0.6" id="Shape"></path>
            </g>
            <path d="M80.6,143.6 L23.8,143.6 C18.1,143.6 13.5,139 13.5,133.3 L13.5,10.5 C13.5,4.8 18.1,0.2 23.8,0.2 L80.6,0.2 C86.3,0.2 90.9,4.8 90.9,10.5 L90.9,133.3 C90.9,139 86.3,143.6 80.6,143.6 Z" id="Shape" class="fill-neutral" fill-rule="nonzero"></path>
            <path d="M90.9,10.5 L90.9,133.3 C90.9,139 86.3,143.6 80.6,143.6 L23.8,143.6 C18.1,143.6 13.5,139 13.5,133.3 L13.5,10.5 C13.5,4.8 18.1,0.2 23.8,0.2 L80.6,0.2 C86.3,0.1 90.9,4.8 90.9,10.5 Z" id="Shape" class="fill-primary-200" fill-rule="nonzero"></path>
            <rect id="Rectangle-path" class="fill-neutral" fill-rule="nonzero" x="13.4" y="11.6" width="77.5" height="115.6"></rect>
            <path d="M81.7,42.8 C81.7,42.8 81.7,42.9 81.7,42.8 C81.7,42.8 81.7,42.7 81.7,42.8 C81.7,42.7 81.7,42.8 81.7,42.8 C81.7,42.9 81.7,42.8 81.7,42.8 C81.7,48.3 77.3,53.4 71.8,53.4 C66.4,53.4 62,48.9 62,43.4 C62,48.9 57.6,53.4 52.2,53.4 C47.2,53.4 43.2,49.2 42.6,44.2 C42.5,43.8 42.5,43.3 42.5,42.8 C42.5,42.8 42.5,42.8 42.5,42.9 C42.5,42.9 42.5,42.8 42.5,42.8 C42.5,42.8 42.5,43 42.5,43 C42.5,43 42.5,43 42.5,42.9 C42.5,48.4 38,53.5 32.5,53.5 C27.1,53.5 22.6,49 22.6,43.5 C22.6,43.7 22.6,43.9 22.6,44.1 C22.3,49.1 18.4,53.1 13.4,53.5 L13.4,30 L90.9,30 L90.9,53.5" id="Shape" fill="#9ECBFF" fill-rule="nonzero"></path>
            <path d="M13.4,54.4 L13.4,10.5 C13.4,4.8 18,0.2 23.7,0.2 L80.5,0.2 C86.2,0.2 90.8,4.8 90.8,10.5 L90.8,133.3 C90.8,139 86.2,143.6 80.5,143.6 L23.7,143.6 C18,143.6 13.4,139 13.4,133.3 L13.4,70.6" id="Shape" class="stroke-primary" stroke-width="3" stroke-linecap="round" stroke-linejoin="round"></path>
            <path d="M13.4,45.8 L13.4,45.4" id="Shape" class="stroke-primary" stroke-width="3" stroke-linecap="round" stroke-linejoin="round"></path>
            <circle id="Oval" class="stroke-primary" stroke-width="3" stroke-linecap="round" stroke-linejoin="round" cx="52.8" cy="135.2" r="3.5"></circle>
            <path d="M82.5,12.1 L90.2,12.1" id="Shape" class="stroke-primary" stroke-width="3" stroke-linecap="round" stroke-linejoin="round"></path>
            <path d="M20.7,12.1 L76.4,12.1" id="Shape" class="stroke-primary" stroke-width="3" stroke-linecap="round" stroke-linejoin="round"></path>
            <path d="M72.7,126.7 L14.2,126.7" id="Shape" class="stroke-primary" stroke-width="3" stroke-linecap="round" stroke-linejoin="round"></path>
            <path d="M90.2,126.7 L79.1,126.7" id="Shape" class="stroke-primary" stroke-width="3" stroke-linecap="round" stroke-linejoin="round"></path>
            <path d="M49.3,6.1 L58.3,6.1" id="Shape" class="stroke-primary" stroke-width="3" stroke-linecap="round" stroke-linejoin="round"></path>
            <path d="M43.4,6.1 L44,6.1" id="Shape" class="stroke-primary" stroke-width="3" stroke-linecap="round" stroke-linejoin="round"></path>
            <g id="Group" transform="translate(3.000000, 11.000000)">
                <path d="M98.4,25.9 C98.4,26.2 98.4,26.5 98.4,26.8 C98.4,32.3 94,36.8 88.6,36.8 C83.2,36.8 78.8,31.8 78.8,26.2 C78.8,26.4 78.8,26.1 78.8,26.1 C78.8,26.1 78.8,26.2 78.8,26.3 C78.8,26.3 78.8,26.3 78.8,26.2 C78.8,31.7 74.4,36.8 68.9,36.8 C63.4,36.8 59.1,32.3 59.1,26.8 C59.1,32.3 54.7,36.8 49.3,36.8 C44.3,36.8 40.3,32.6 39.7,27.6 C39.6,27.2 39.6,26.7 39.6,26.2 C39.6,26.2 39.6,26.2 39.6,26.3 C39.6,26.3 39.6,26.1 39.6,26.1 C39.6,26.1 39.6,26.3 39.6,26.3 C39.6,26.3 39.6,26.3 39.6,26.2 C39.6,31.7 35.1,36.8 29.6,36.8 C24.1,36.8 19.7,32.3 19.7,26.8 C19.7,27 19.7,27.2 19.7,27.4 C19.4,32.6 15.1,36.8 9.9,36.8 C4.5,36.8 0.1,32.3 0.1,26.8 C0.1,26.5 0.1,26.2 0.1,25.9 L0.1,13.4 L11,0.6 L87.5,0.6 L98.4,13.4 L98.4,25.9 Z" id="Shape" class="fill-neutral" fill-rule="nonzero"></path>
                <path d="M39.4,13.4 L39.5,27.6 C39.4,27.2 39.4,26.7 39.4,26.2 C39.4,31.7 34.9,36.8 29.4,36.8 C23.9,36.8 19.5,32.3 19.5,26.8 C19.5,27 19.5,27.2 19.5,27.4 L19.6,13.8 L25.8,2.6 L27.1,0.6 L43.3,0.6 L39.4,13.4 Z" id="Shape" class="fill-primary-300" fill-rule="nonzero"></path>
                <path d="M59.3,13.4 L59.2,27.6 C59.3,27.2 59.3,26.7 59.3,26.2 C59.3,31.7 63.8,36.8 69.3,36.8 C74.8,36.8 79.2,32.3 79.2,26.8 C79.2,27 79.2,27.2 79.2,27.4 L79.1,13.8 L72.9,2.6 L71.6,0.6 L55.4,0.6 L59.3,13.4 Z" id="Shape" class="fill-primary-300" fill-rule="nonzero"></path>
                <path d="M98.4,25.9 C98.4,26.2 98.4,26.5 98.4,26.8 C98.4,32.3 94,36.8 88.6,36.8 C83.2,36.8 78.8,31.8 78.8,26.2 C78.8,26.4 78.8,26.1 78.8,26.1 C78.8,26.1 78.8,26.2 78.8,26.3 C78.8,26.3 78.8,26.3 78.8,26.2 C78.8,31.7 74.4,36.8 68.9,36.8 C63.4,36.8 59.1,32.3 59.1,26.8 C59.1,32.3 54.7,36.8 49.3,36.8 C44.3,36.8 40.3,32.6 39.7,27.6 C39.6,27.2 39.6,26.7 39.6,26.2 C39.6,26.2 39.6,26.2 39.6,26.3 C39.6,26.3 39.6,26.1 39.6,26.1 C39.6,26.1 39.6,26.3 39.6,26.3 C39.6,26.3 39.6,26.3 39.6,26.2 C39.6,31.7 35.1,36.8 29.6,36.8 C24.1,36.8 19.7,32.3 19.7,26.8 C19.7,27 19.7,27.2 19.7,27.4 C19.4,32.6 15.1,36.8 9.9,36.8 C4.5,36.8 0.1,32.3 0.1,26.8 C0.1,26.5 0.1,26.2 0.1,25.9 L0.1,13.4 L11,0.6 L87.5,0.6 L98.4,13.4 L98.4,25.9 Z" id="Shape" class="stroke-primary" stroke-width="3" stroke-linecap="round" stroke-linejoin="round"></path>
                <polyline id="Shape" class="stroke-primary" stroke-width="3" stroke-linecap="round" stroke-linejoin="round" points="19.6 25.8 19.6 13.4 27.3 0.6"></polyline>
                <polyline id="Shape" stroke-width="3" class="stroke-primary fill-neutral" fill-rule="nonzero" stroke-linecap="round" stroke-linejoin="round" points="39.4 26.2 39.4 13.4 43.7 0.6"></polyline>
                <polyline id="Shape" class="stroke-primary" stroke-width="3" stroke-linecap="round" stroke-linejoin="round" points="78.7 26.2 78.7 13.4 72 0.6"></polyline>
                <polyline id="Shape" stroke-width="3" class="stroke-primary fill-neutral" fill-rule="nonzero" stroke-linecap="round" stroke-linejoin="round" points="58.9 25.8 58.9 13.4 55.6 0.6"></polyline>
                <path d="M64.5,13.4 L98.4,13.4" id="Shape" stroke-width="3" class="stroke-primary fill-neutral" fill-rule="nonzero" stroke-linecap="round" stroke-linejoin="round"></path>
                <path d="M12.9,13.4 L58.9,13.4" id="Shape" stroke-width="3" class="stroke-primary fill-neutral" fill-rule="nonzero" stroke-linecap="round" stroke-linejoin="round"></path>
                <path d="M8.7,13.4 L9.3,13.4" id="Shape" stroke-width="3" class="stroke-primary fill-neutral" fill-rule="nonzero" stroke-linecap="round" stroke-linejoin="round"></path>
                <path d="M0,13.4 L3.1,13.4" id="Shape" stroke-width="3" class="stroke-primary fill-neutral" fill-rule="nonzero" stroke-linecap="round" stroke-linejoin="round"></path>
            </g>
        </g>
    </g>
</svg>
